X:1
T:More Than These
T:More Than These
T:Bentley DeForest Ackley
T:Ina Duley Ogdon, 1914
T:Public Domain Courtesy of the Cyber Hymnal™
C:Bentley DeForest Ackley
Z:Public Domain
Z:Courtesy of the Cyber Hymnal™
%%score ( 1 2 ) 3
L:1/8
Q:1/4=105
M:4/4
K:Ab
V:1 treble 
V:2 treble 
V:3 bass 
V:1
 [CE]2 | [Ec]3 [Fd] [Ec][CE][CA][CF] | [DG]2 [DB]4 [DE]2 | [DB]3 [CA] [DG][DE] [Ge]>[Gd] | %4
w: 1.~I|need not trou- ble for the|mor- row, For|I am in my Fa- ther’s|
w: 2.~I|need not ei- ther thirst or|hun- ger; His|grace will nev- er be de-|
w: 3.~I|need not an a- bid- ing|ci- ty, For|“I can tar- ry but a|
w: 4.~O|may my faith in- crease be-|fore Him, My|serv- ice here His bless- ing|
 [Ac]6 E2 | [Ec]3 [Fd] [Ec][CE][CA][CF] | [EG]2 [GB]4 [Ge]2 | [A=d]3 [Ac] [GB][=DA] [DG]>[DF] | %8
w: care; He|will go with me as I|jour- ney, For|all my need He will pre-|
w: nied; He|leads me to the liv- ing|wa- ters; His|dai- ly man- na is sup-|
w: night”; My|heart, my trea- sure, are in|Hea- ven, My|rai- ment is a robe of|
w: gain; Let|me seek first my Fa- ther’s|king- dom, For|all be- side must be in|
 E6 ||"^Refrain" [Ge]2 | [Ge]3 [Fd] [DF][DG][Ec][DG] | [DB]2 [CA]4 [Ec]2 | %12
w: pare.||||
w: plied.||||
w: white.||||
w: vain!||||
 [=Ec]3 [Ed] [Ec][EB][EA][EG] | ([CF]4 !fermata![DG]2) [DE]2 | [CA]3 [DB] [Ec][_Ge][Fd][DF] | %15
w: |||
w: |||
w: |||
w: |||
 [Fd]2 [Ec]4 [Ec]2 | [Ge]3 [Fd] [DF][Gd] [Gc]>[EB] | [EA]6 |] %18
w: |||
w: |||
w: |||
w: |||
V:2
 x2 | x8 | x8 | x8 | x6 E2 | x8 | x8 | x8 | E6 || x2 | x8 | x8 | x8 | x8 | x8 | x8 | x8 | x6 |] %18
V:3
 [A,,A,]2 | [A,,A,]3 [A,,A,] [A,,A,][A,,A,][A,,E,][A,,A,] | [E,B,]2 [E,G,]4 [E,G,]2 | %3
w: ~|~ ~ ~ ~ ~ ~|~ ~ ~|
 [E,G,]3 [E,A,] [E,B,][E,G,] [E,B,]>[E,C] | [A,E]6 [A,C]2 | %5
w: ~ ~ ~ ~ ~ ~|~ ~|
 [A,,A,]3 [A,,A,] [A,,A,][A,,A,][A,,E,][A,,A,] | [E,B,]2 [E,E]4 [E,B,]2 | %7
w: ~ ~ ~ ~ ~ ~|~ ~ ~|
 [B,,B,]3 [B,,B,] [B,,B,][B,,F,] [B,,B,]>[B,,B,] | [E,G,]6 || [E,B,]2 | %10
w: ~ ~ ~ ~ ~ ~|~|I|
 [E,B,]3 [E,G,] [E,A,][E,B,][E,G,][E,B,] | [A,,A,]2 [A,,E,]4 [A,,A,]2 | %12
w: know that He pro- vides the|lil- ies, His|
 [C,G,]3 [C,G,] [C,G,][C,G,][C,C][C,B,] | ([F,A,]4 [E,B,]2) [B,,G,]2 | %14
w: eye each fall- ing spar- row|sees; * And|
 [A,,A,]3 [A,,A,] [A,,A,][C,A,][D,A,][D,A,] | [A,,A,]2 [A,,A,]4 [A,,A,]2 | %16
w: so my soul will fear no|e- vil, For|
 [E,B,]3 [E,G,] [E,G,][E,B,] [E,F]>[E,D] | [A,,A,C]6 |] %18
w: I am more to Him than|these.|

